X: 15299
T: Girls Of Banbridge, The
R: jig
M: 6/8
K: Dmajor
B|:AFA dfa|agf e2g|fag fed|cde e2A|
AFA dfa|agf efg|fad eac|1 ded d2B:|2 ded d2E||
|:DFA dcB|AGF E2D|FAD FAD|EFE EFG|
AFA dcB|BAG FED|fad eac|1 ded d2E:|2 ded d2B||

